src/assets/icons/calendar-clock.svg

<svg width="14" height="14" viewBox="0 0 14 14" fill="none" xmlns="http://www.w3.org/2000/svg">
<g id="calendar-clock">
<g clip-path="url(#clip0_295_4740)">
<path id="Vector" fill-rule="evenodd" clip-rule="evenodd" d="M4.23685 0C4.54206 0 4.78948 0.247422 4.78948 0.552632V1.47368H8.10527V0.552632C8.10527 0.247422 8.35269 0 8.6579 0C8.96311 0 9.21053 0.247422 9.21053 0.552632V1.47368H10.1316C11.2507 1.47368 12.1579 2.3809 12.1579 3.5V6.07895C12.1579 6.38416 11.9105 6.63158 11.6053 6.63158H1.84211V11.6053C1.84211 12.1139 2.25448 12.5263 2.76316 12.5263H5.71053C6.01574 12.5263 6.26316 12.7737 6.26316 13.0789C6.26316 13.3842 6.01574 13.6316 5.71053 13.6316H2.76316C1.64406 13.6316 0.736847 12.7244 0.736847 11.6053V3.5C0.736847 2.3809 1.64406 1.47368 2.76316 1.47368H3.68422V0.552632C3.68422 0.247422 3.93164 0 4.23685 0ZM8.10527 2.57895V3.5C8.10527 3.80521 8.35269 4.05263 8.6579 4.05263C8.96311 4.05263 9.21053 3.80521 9.21053 3.5V2.57895H10.1316C10.6403 2.57895 11.0526 2.99132 11.0526 3.5V5.52632H1.84211V3.5C1.84211 2.99132 2.25448 2.57895 2.76316 2.57895H3.68422V3.5C3.68422 3.80521 3.93164 4.05263 4.23685 4.05263C4.54206 4.05263 4.78948 3.80521 4.78948 3.5V2.57895H8.10527ZM9.94737 8.47368C8.72653 8.47368 7.73685 9.46337 7.73685 10.6842C7.73685 11.9051 8.72653 12.8947 9.94737 12.8947C11.1682 12.8947 12.1579 11.9051 12.1579 10.6842C12.1579 9.46337 11.1682 8.47368 9.94737 8.47368ZM6.63158 10.6842C6.63158 8.85295 8.11611 7.36842 9.94737 7.36842C11.7786 7.36842 13.2632 8.85295 13.2632 10.6842C13.2632 12.5155 11.7786 14 9.94737 14C8.11611 14 6.63158 12.5155 6.63158 10.6842ZM10.3158 9.76316C10.3158 9.45795 10.0684 9.21053 9.76316 9.21053C9.45795 9.21053 9.21053 9.45795 9.21053 9.76316V11.2368C9.21053 11.5421 9.45795 11.7895 9.76316 11.7895H10.5C10.8052 11.7895 11.0526 11.5421 11.0526 11.2368C11.0526 10.9316 10.8052 10.6842 10.5 10.6842H10.3158V9.76316Z" fill="black"/>
</g>
</g>
<defs>
<clipPath id="clip0_295_4740">
<rect width="14" height="14" fill="white"/>
</clipPath>
</defs>
</svg>

<svg xmlns="http://www.w3.org/2000/svg" fill="none" viewBox="0 0 14 14"><g clip-path="url(#a)"><path fill="#000" fill-rule="evenodd" d="M4.237 0c.305 0 .552.247.552.553v.92h3.316v-.92a.553.553 0 1 1 1.106 0v.92h.92c1.12 0 2.027.908 2.027 2.027v2.579a.553.553 0 0 1-.553.553H1.842v4.973c0 .509.412.921.921.921h2.948a.553.553 0 1 1 0 1.106H2.763a2.026 2.026 0 0 1-2.026-2.027V3.5c0-1.12.907-2.026 2.026-2.026h.921V.553c0-.306.248-.553.553-.553m3.868 2.579V3.5a.553.553 0 1 0 1.106 0v-.921h.92c.51 0 .922.412.922.921v2.026h-9.21V3.5c0-.509.411-.921.92-.921h.921V3.5a.553.553 0 1 0 1.105 0v-.921zm1.842 5.895a2.21 2.21 0 1 0 0 4.42 2.21 2.21 0 0 0 0-4.42m-3.315 2.21a3.316 3.316 0 1 1 6.631 0 3.316 3.316 0 0 1-6.631 0m3.684-.92a.553.553 0 1 0-1.105 0v1.473c0 .305.247.553.552.553h.737a.553.553 0 0 0 0-1.106h-.184z" clip-rule="evenodd"/></g><defs><clipPath id="a"><path fill="#fff" d="M0 0h14v14H0z"/></clipPath></defs></svg>
